X: 16949
T: Hawk, The
R: hornpipe
M: 4/4
K: Emajor
|:B2|Bbge Bafd|Bged edcB|cBdB eBfB|gBag f2fg|
abga fgef|dbca BgAe|defg aBcd|eBgf e2:|
|:B2|Bbge Bafd|Bged edcB|cBeB fBgB|aBag f2fg|
abga fgef|decd BcAe|defg aBcd|eBgf e2:|

